Adwaita++/actions/22/payee-rename.svg

<svg height="22" width="22" xmlns="http://www.w3.org/2000/svg">
  <path d="m11 3c-2.2091-.0000055-4 1.7909-4 4 .0000166 2.2091 1.7909 4 4 4 2.2091.000006 4-1.7909 4-4s-1.791-4-4-4zm0 8.986328c-4.028.0048-7.4965 3.017672-8 7.013672h9.712891c-1.0343-.827-1.712891-2.082-1.712891-3.5 0-1.403.665341-2.659228 1.681641-3.486328-.7385-.0145-1.494341-.025944-1.681641-.027344zm4.5.013672a3.5 3.5 0 0 0 -3.5 3.5 3.5 3.5 0 0 0 3.5 3.5 3.5 3.5 0 0 0 3.5-3.5 3.5 3.5 0 0 0 -3.5-3.5zm-1.5 1h3v3h-1.292969l1.292969 1.292969v.707031h-.707031l-1.292969-1.292969v1.292969h-1v-2-1-1zm1 1v1h1v-1z" fill="#444"/>
</svg>

<svg xmlns="http://www.w3.org/2000/svg" width="22" height="22" version="1.1">
 <defs>
  <style id="current-color-scheme" type="text/css">
   .ColorScheme-Text { color:#444444; } .ColorScheme-Highlight { color:#4285f4; }
  </style>
 </defs>
 <path style="fill:currentColor" class="ColorScheme-Text" d="M 11 3 C 8.7909 2.9999945 7 4.7909 7 7 C 7.0000166 9.2091 8.7909 11 11 11 C 13.2091 11.000006 15 9.2091 15 7 C 15 4.7909 13.209 3 11 3 z M 11 11.986328 C 6.972 11.991128 3.5035 15.004 3 19 L 12.712891 19 C 11.678591 18.173 11 16.918 11 15.5 C 11 14.097 11.665341 12.840772 12.681641 12.013672 C 11.943141 11.999172 11.1873 11.987728 11 11.986328 z M 15.5 12 A 3.5 3.5 0 0 0 12 15.5 A 3.5 3.5 0 0 0 15.5 19 A 3.5 3.5 0 0 0 19 15.5 A 3.5 3.5 0 0 0 15.5 12 z M 14 13 L 17 13 L 17 16 L 15.707031 16 L 17 17.292969 L 17 18 L 16.292969 18 L 15 16.707031 L 15 18 L 14 18 L 14 16 L 14 15 L 14 14 L 14 13 z M 15 14 L 15 15 L 16 15 L 16 14 L 15 14 z"/>
</svg>
